Numix-GalliumOS/16/mimetypes/application-x-scribus.svg

<?xml version="1.0" encoding="UTF-8" standalone="no"?>
<svg
   xmlns:dc="http://purl.org/dc/elements/1.1/"
   xmlns:cc="http://creativecommons.org/ns#"
   xmlns:rdf="http://www.w3.org/1999/02/22-rdf-syntax-ns#"
   xmlns:svg="http://www.w3.org/2000/svg"
   xmlns="http://www.w3.org/2000/svg"
   xmlns:sodipodi="http://sodipodi.sourceforge.net/DTD/sodipodi-0.dtd"
   xmlns:inkscape="http://www.inkscape.org/namespaces/inkscape"
   width="16"
   height="16"
   viewBox="0 0 16 16"
   id="svg2"
   version="1.1"
   inkscape:version="0.91 r13725"
   sodipodi:docname="application-x-scribus.svg">
  <metadata
     id="metadata22">
    <rdf:RDF>
      <cc:Work
         rdf:about="">
        <dc:format>image/svg+xml</dc:format>
        <dc:type
           rdf:resource="http://purl.org/dc/dcmitype/StillImage" />
        <dc:title></dc:title>
      </cc:Work>
    </rdf:RDF>
  </metadata>
  <defs
     id="defs20" />
  <sodipodi:namedview
     pagecolor="#ffffff"
     bordercolor="#666666"
     borderopacity="1"
     objecttolerance="10"
     gridtolerance="10"
     guidetolerance="10"
     inkscape:pageopacity="0"
     inkscape:pageshadow="2"
     inkscape:window-width="1366"
     inkscape:window-height="713"
     id="namedview18"
     showgrid="true"
     inkscape:zoom="45.254834"
     inkscape:cx="9.8777215"
     inkscape:cy="6.4509991"
     inkscape:window-x="0"
     inkscape:window-y="28"
     inkscape:window-maximized="1"
     inkscape:current-layer="svg2">
    <inkscape:grid
       type="xygrid"
       id="grid3010" />
  </sodipodi:namedview>
  <path
     style="fill:#eb1b23;fill-opacity:1"
     d="M 2.667969,-4.465e-4 C 2.324219,-4.465e-4 2,0.3378115 2,0.6964462 L 2,15.303108 C 2,15.641365 2.34375,16 2.667969,16 l 10.664062,0 C 13.65625,16 14,15.641365 14,15.303108 L 14,3.9995533 10,-4.465e-4 z"
     id="path4-2"
     inkscape:connector-curvature="0"
     sodipodi:nodetypes="ssssssccs" />
  <path
     style="fill:#000000;fill-opacity:0.19599998"
     d="m 10.583223,3.3315843 0.0154,0.01953 0.04005,-0.01953 z m 0.02978,0.667969 3.387,3.664062 0,-3.664062 z"
     id="path6"
     inkscape:connector-curvature="0"
     sodipodi:nodetypes="cccccccc" />
  <path
     style="fill:#ffffff;fill-opacity:0.39200003"
     d="m 10,-4.465e-4 3.996396,3.9999998 -3.383784,0 C 10.313513,3.9995533 10,3.6824363 10,3.3833373 z"
     id="path8"
     inkscape:connector-curvature="0"
     sodipodi:nodetypes="ccssc" />
  <g
     style="fill:#ffffff"
     id="g10"
     transform="matrix(1.1403154,0,0,1.1403154,-1.1225351,-1.1223974)" />
  <path
     style="color:#000000;font-style:normal;font-variant:normal;font-weight:normal;font-stretch:normal;font-size:medium;line-height:normal;font-family:sans-serif;text-indent:0;text-align:start;text-decoration:none;text-decoration-line:none;text-decoration-style:solid;text-decoration-color:#000000;letter-spacing:normal;word-spacing:normal;text-transform:none;direction:ltr;block-progression:tb;writing-mode:lr-tb;baseline-shift:baseline;text-anchor:start;white-space:normal;clip-rule:nonzero;display:inline;overflow:visible;visibility:visible;opacity:1;isolation:auto;mix-blend-mode:normal;color-interpolation:sRGB;color-interpolation-filters:linearRGB;solid-color:#000000;solid-opacity:1;fill:#f3ffff;fill-opacity:1;fill-rule:evenodd;stroke:none;stroke-width:0.56400001;stroke-linecap:butt;stroke-linejoin:miter;stroke-miterlimit:4;stroke-dasharray:none;stroke-dashoffset:0;stroke-opacity:1;color-rendering:auto;image-rendering:auto;shape-rendering:auto;text-rendering:auto;enable-background:accumulate"
     d="M 9.5826406,5.0174004 C 9.3691127,4.9932861 9.1976443,4.9931604 9.0403611,5.0238004 8.8830774,5.054429 8.7374177,5.1295031 8.6508373,5.2238755 8.5642558,5.318241 8.5371258,5.4109597 8.5235413,5.4558762 8.218592,6.0547951 7.8580115,6.6497036 7.5280937,7.1586374 7.1209067,7.7620145 6.6454832,8.4648749 6.397709,9.0316738 6.2468465,9.3779074 6.0843235,9.7951146 5.92417,10.229992 5.5915044,11.141154 5.2915839,12.051714 5,12.96718 5.4747182,13 5.4747182,12.99735 5.8410061,13 6.1106633,12.504824 6.5580321,12.033949 6.9323524,11.690112 7.5798301,11.098997 8.5140785,10.494768 9.4063239,10.359828 l 0.3004182,-0.0447 c 0.01663,-0.9334742 0.102065,-1.9439649 0.5632989,-2.762729 0.189132,-0.3403182 0.453108,-0.6104216 0.69758,-0.9194907 0.06288,-0.050731 0.01358,-0.110697 0.02037,-0.1660192 -0.182589,-0.9062767 -0.801139,-1.3559707 -1.3875209,-1.4473465 -0.00635,0.00108 -0.01241,-0.00149 -0.017831,-0.00217 z"
     id="path53"
     inkscape:connector-curvature="0"
     sodipodi:nodetypes="cssccccccccccccccc" />
</svg>

<svg xmlns="http://www.w3.org/2000/svg" viewBox="0 0 16 16">
 <path d="m 2.668 0 c -0.344 0 -0.668 0.338 -0.668 0.697 l 0 14.607 c 0 0.338 0.344 0.697 0.668 0.697 l 10.664 0 c 0.324 0 0.668 -0.359 0.668 -0.697 l 0 -11.304 -4 -4 z" style="fill:#eb1b23;fill-opacity:1"/>
 <path d="m 10.583 3.332 0.015 0.02 0.04 -0.02 z m 0.03 0.668 3.387 3.664 0 -3.664 z" style="fill:#000;fill-opacity:0.196"/>
 <path d="m 10 0 3.996 4 -3.384 0 c -0.299 0 -0.613 -0.317 -0.613 -0.616 z" style="fill:#fff;fill-opacity:0.392"/>
 <path d="m 9.583 5.02 c -0.214 -0.024 -0.385 -0.024 -0.542 0.006 -0.157 0.031 -0.303 0.106 -0.39 0.2 -0.087 0.094 -0.114 0.187 -0.127 0.232 -0.305 0.599 -0.666 1.194 -0.995 1.703 -0.407 0.603 -0.883 1.306 -1.13 1.873 -0.151 0.346 -0.313 0.763 -0.474 1.198 -0.333 0.911 -0.633 1.822 -0.924 2.737 0.475 0.033 0.475 0.03 0.841 0.033 0.27 -0.495 0.717 -0.966 1.091 -1.31 0.647 -0.591 1.582 -1.195 2.474 -1.33 l 0.3 -0.045 c 0.017 -0.933 0.102 -1.944 0.563 -2.763 0.189 -0.34 0.453 -0.61 0.698 -0.919 0.063 -0.051 0.014 -0.111 0.02 -0.166 -0.183 -0.906 -0.801 -1.356 -1.388 -1.447 -0.006 0.001 -0.012 -0.001 -0.018 -0.002 z" mix-blend-mode="normal" isolation="auto" white-space="normal" solid-opacity="1" solid-color="#000000" style="visibility:visible;shape-rendering:auto;color-interpolation-filters:linearRGB;fill:#f3ffff;opacity:1;image-rendering:auto;fill-opacity:1;stroke:none;display:inline;color:#000;fill-rule:evenodd;color-rendering:auto;color-interpolation:sRGB"/>
</svg>
